X: 716
T: Riben qiangdao zhen kehen
L: 1/8
M: 2/4
K: F
B dc2 [I:setbarnb 1]| 
B dc2 | 
d c B A | 
c2G c | 
z f d f | 
c> f A G | 
FG2D | 
C4 | 
c> c G A | 
F DC2 | 
c c G A | 
D FC2 | 
D> F D3/ F/ | 
AG3 | 
G> A c c | 
d f d c | 
c2c A | 
G FC2 |]

@@@ Tune index: 9590
